X: 5
T: The Broken Pledge
R: reel
M: 4/4
L: 1/8
K: Emix
edBA BEEc|dBAF FDDF|EFFA Beed|BdAF Eagf|
edBA GABC|dcdB ADDF|EFFA Beed|BdAF FE E2:|
e2 BA Bdef|f2 ef fdBc|dcdB ABde|fd d2 fbaf|
edBA GBEf|f2 ef fdBA|FFFF FABe|dBAF FE E2:|


Tune 1423	Setting 23421

